X: 18
T: No_26_Song_of_a_Medicine_Man_at_Carmanah.krn
N: Derived from No_26_Song_of_a_Medicine_Man_at_Carmanah.krn
%%abc-version 2.0
%%abcx-abcm2ps-target-version 5.9.1 (29 Sep 2008)
%%abc-creator hum2abc beta
%%abcx-conversion-date 2019/03/15 08:26:49
%%humdrum-veritas 399322257
%%humdrum-veritas-data 2227178856
%%linebreak <none>
%%barnumbers 0
L: 1/8
M: 2/4
%%staves {1 2}
V: 1 clef=bass
V: 2 clef=bass
K: F
[V:1] [K:clef=bass][M:2/4]A,4- | 
[V:2] [K:clef=bass][M:2/4]G,,G,, G,,G,, | 
[V:1] A,2F, z/ C/ ||  
[V:2] G,,G,,z2 ||  
[V:1] [M:3/4]A, z/ A,/ F, z/ C/ A, z ||  
[V:2] [M:3/4]z6 ||  
[V:1] [M:2/4]A,4- | 
[V:2] [M:2/4]z4 | 
[V:1] A,2F,2 | 
[V:2] z4 | 
[V:1] A,2F, z/ F,/ | 
[V:2] z4 | 
[V:1] F, z/ C/ A, z | 
[V:2] z4 | 
[V:1] A,4- | 
[V:2] z4 | 
[V:1] A,2F, z/ C/ ||  
[V:2] z4 ||  
[V:1] [M:3/4]A, z/ A,/ F, z/ C/ A, z ||  
[V:2] [M:3/4]z6 ||  
[V:1] [M:2/4]A,4- | 
[V:2] [M:2/4]z4 | 
[V:1] A,2F,2 | 
[V:2] z4 | 
[V:1] A,3/B,/ A, z/ F,/ | 
[V:2] z4 | 
[V:1] F, z/ C/ A, z | 
[V:2] z4 | 
[V:1] A,4- | 
[V:2] z4 | 
[V:1] A,2F, z/ C/ ||  
[V:2] z4 ||  
[V:1] [M:3/4]A, z/ A,/ F, z/ C/ A, z ||  
[V:2] [M:3/4]z6 ||  
[V:1] [M:2/4]A,4- | 
[V:2] [M:2/4]z4 | 
[V:1] A,2F,2 | 
[V:2] z4 | 
[V:1] A,3/C/ A, z/ A,/ | 
[V:2] z4 | 
[V:1] F, z/ C/ A, z | 
[V:2] z4 | 
[V:1] A,4 | 
[V:2] z4 | 
[V:1] F,2z2 |]  
[V:2] z4 |]  



